; generated by Slic3r 1.3.0 on 2022-07-13 at 12:42:44

; external perimeters extrusion width = 0.44mm (3.38mm^3/s)
; perimeters extrusion width = 0.48mm (7.54mm^3/s)
; infill extrusion width = 0.48mm (10.05mm^3/s)
; solid infill extrusion width = 0.48mm (2.51mm^3/s)
; top infill extrusion width = 0.48mm (1.88mm^3/s)

M107
M190 S40 ; set bed temperature and wait for it to be reached
M104 S220 ; set temperature
G28 ; home all axes
G1 Z5 F5000 ; lift nozzle


M109 S220 ; set temperature and wait for it to be reached
G21 ; set units to millimeters
G90 ; use absolute coordinates
M82 ; use absolute distances for extrusion
G92 E0
G1 Z0.150 F7800.000
G1 E-2.00000 F2400.00000
G92 E0
G1 X88.820 Y83.747 F7800.000
G1 E2.00000 F2400.00000
G1 F1800
G1 X89.416 Y83.162 E2.02191
G1 X90.065 Y82.600 E2.04446
G1 X90.722 Y82.100 E2.06616
G1 X91.225 Y81.758 E2.08212
G1 X91.950 Y81.321 E2.10434
G1 X92.894 Y80.839 E2.13218
G1 X93.669 Y80.511 E2.15427
G1 X94.579 Y80.199 E2.17953
G1 X95.287 Y80.000 E2.19886
G1 X95.875 Y79.869 E2.21466
G1 X96.949 Y79.700 E2.24321
G1 X97.766 Y79.630 E2.26474
G1 X98.442 Y79.610 E2.28251
G1 X105.552 Y79.610 E2.46920
G1 X106.225 Y79.629 E2.48686
G1 X107.061 Y79.701 E2.50890
G1 X107.893 Y79.825 E2.53099
G1 X108.715 Y80.001 E2.55307
G1 X109.529 Y80.230 E2.57526
G1 X110.321 Y80.507 E2.59731
G1 X111.097 Y80.835 E2.61942
G1 X111.852 Y81.212 E2.64158
G1 X112.573 Y81.630 E2.66347
G1 X113.278 Y82.100 E2.68572
G1 X113.947 Y82.610 E2.70782
G1 X114.582 Y83.160 E2.72985
G1 X115.182 Y83.749 E2.75194
G1 X115.744 Y84.376 E2.77405
G1 X116.274 Y85.049 E2.79654
G1 X116.745 Y85.729 E2.81827
G1 X117.180 Y86.451 E2.84039
G1 X117.568 Y87.198 E2.86249
G1 X117.994 Y88.182 E2.89064
G1 X118.204 Y88.767 E2.90698
G1 X118.441 Y89.561 E2.92873
G1 X118.632 Y90.382 E2.95087
G1 X118.769 Y91.199 E2.97262
G1 X118.871 Y92.275 E3.00101
G1 X118.890 Y92.939 E3.01845
G1 X118.890 Y117.058 E3.65176
G1 X118.857 Y117.950 E3.67521
G1 X118.771 Y118.789 E3.69736
G1 X118.673 Y119.403 E3.71366
G1 X118.498 Y120.220 E3.73560
G1 X118.267 Y121.039 E3.75795
G1 X117.992 Y121.823 E3.77977
G1 X117.667 Y122.592 E3.80169
G1 X117.289 Y123.351 E3.82395
G1 X116.870 Y124.074 E3.84590
G1 X116.402 Y124.775 E3.86802
G1 X115.905 Y125.428 E3.88957
G1 X115.347 Y126.074 E3.91199
G1 X114.739 Y126.693 E3.93478
G1 X114.124 Y127.244 E3.95647
G1 X113.462 Y127.767 E3.97862
G1 X112.774 Y128.243 E4.00059
G1 X112.058 Y128.675 E4.02254
G1 X111.308 Y129.065 E4.04473
G1 X110.311 Y129.497 E4.07327
G1 X109.741 Y129.701 E4.08917
G1 X108.932 Y129.943 E4.11132
G1 X107.863 Y130.180 E4.14008
G1 X107.036 Y130.302 E4.16204
G1 X106.221 Y130.371 E4.18352
G1 X105.558 Y130.390 E4.20093
G1 X98.439 Y130.390 E4.38786
G1 X97.780 Y130.371 E4.40518
G1 X96.724 Y130.272 E4.43301
G1 X96.107 Y130.175 E4.44941
G1 X95.286 Y129.999 E4.47146
G1 X94.473 Y129.771 E4.49364
G1 X93.677 Y129.492 E4.51580
G1 X92.664 Y129.052 E4.54480
G1 X91.942 Y128.675 E4.56619
G1 X91.233 Y128.247 E4.58793
G1 X90.540 Y127.768 E4.61006
G1 X90.052 Y127.390 E4.62625
G1 X89.418 Y126.840 E4.64828
G1 X88.825 Y126.258 E4.67010
G1 X88.107 Y125.443 E4.69862
G1 X87.600 Y124.779 E4.72056
G1 X87.133 Y124.078 E4.74268
G1 X86.817 Y123.543 E4.75900
G1 X86.437 Y122.814 E4.78058
G1 X86.009 Y121.825 E4.80889
G1 X85.800 Y121.246 E4.82505
G1 X85.560 Y120.445 E4.84700
G1 X85.371 Y119.636 E4.86882
G1 X85.233 Y118.812 E4.89074
G1 X85.129 Y117.726 E4.91941
G1 X85.110 Y117.052 E4.93711
G1 X85.110 Y92.942 E5.57018
G1 X85.130 Y92.266 E5.58793
G1 X85.230 Y91.206 E5.61589
G1 X85.325 Y90.609 E5.63177
G1 X85.478 Y89.891 E5.65105
G1 X85.728 Y88.976 E5.67597
G1 X86.092 Y87.965 E5.70416
G1 X86.433 Y87.194 E5.72630
G1 X86.720 Y86.633 E5.74286
G1 X87.257 Y85.726 E5.77052
G1 X87.607 Y85.213 E5.78684
G1 X88.104 Y84.560 E5.80837
G1 X88.779 Y83.791 E5.83526
G1 X89.123 Y84.040 F7800.000
G1 F1800
G1 X89.699 Y83.474 E5.85649
G1 X90.328 Y82.929 E5.87832
G1 X90.964 Y82.444 E5.89934
G1 X91.456 Y82.110 E5.91496
G1 X92.158 Y81.687 E5.93647
G1 X93.068 Y81.223 E5.96329
G1 X93.818 Y80.905 E5.98469
G1 X94.697 Y80.603 E6.00907
G1 X95.385 Y80.410 E6.02786
G1 X95.960 Y80.282 E6.04332
G1 X96.994 Y80.118 E6.07082
G1 X97.786 Y80.050 E6.09168
G1 X98.445 Y80.031 E6.10900
G1 X105.549 Y80.031 E6.29552
G1 X106.205 Y80.050 E6.31275
G1 X107.015 Y80.119 E6.33409
G1 X107.820 Y80.240 E6.35549
G1 X108.617 Y80.411 E6.37687
G1 X109.405 Y80.632 E6.39837
G1 X110.172 Y80.901 E6.41972
G1 X110.923 Y81.219 E6.44114
G1 X111.655 Y81.584 E6.46260
G1 X112.353 Y81.989 E6.48380
G1 X113.036 Y82.444 E6.50535
G1 X113.684 Y82.939 E6.52675
G1 X114.298 Y83.471 E6.54810
G1 X114.879 Y84.042 E6.56949
G1 X115.423 Y84.649 E6.59090
G1 X115.937 Y85.301 E6.61268
G1 X116.393 Y85.960 E6.63373
G1 X116.814 Y86.659 E6.65515
G1 X117.190 Y87.383 E6.67656
G1 X117.600 Y88.330 E6.70367
G1 X117.805 Y88.903 E6.71964
G1 X118.035 Y89.672 E6.74072
G1 X118.220 Y90.467 E6.76216
G1 X118.352 Y91.259 E6.78324
G1 X118.450 Y92.295 E6.81057
G1 X118.469 Y92.943 E6.82758
G1 X118.469 Y117.055 E7.46072
G1 X118.437 Y117.918 E7.48339
G1 X118.354 Y118.730 E7.50484
G1 X118.259 Y119.330 E7.52078
G1 X118.088 Y120.121 E7.54203
G1 X117.865 Y120.914 E7.56368
G1 X117.598 Y121.674 E7.58482
G1 X117.283 Y122.419 E7.60605
G1 X116.917 Y123.153 E7.62760
G1 X116.511 Y123.854 E7.64887
G1 X116.058 Y124.533 E7.67029
G1 X115.576 Y125.166 E7.69118
G1 X115.035 Y125.791 E7.71289
G1 X114.446 Y126.390 E7.73494
G1 X113.850 Y126.924 E7.75596
G1 X113.209 Y127.430 E7.77741
G1 X112.542 Y127.891 E7.79869
G1 X111.849 Y128.309 E7.81996
G1 X111.123 Y128.687 E7.84145
G1 X110.162 Y129.102 E7.86892
G1 X109.605 Y129.303 E7.88448
G1 X108.822 Y129.537 E7.90594
G1 X107.793 Y129.765 E7.93362
G1 X106.991 Y129.883 E7.95489
G1 X106.201 Y129.951 E7.97571
G1 X105.555 Y129.969 E7.99269
G1 X98.442 Y129.969 E8.17945
G1 X97.799 Y129.950 E8.19634
G1 X96.783 Y129.855 E8.22315
G1 X96.180 Y129.760 E8.23918
G1 X95.384 Y129.590 E8.26053
G1 X94.597 Y129.368 E8.28202
G1 X93.826 Y129.098 E8.30348
G1 X92.851 Y128.674 E8.33139
G1 X92.151 Y128.309 E8.35212
G1 X91.463 Y127.895 E8.37319
G1 X90.792 Y127.431 E8.39462
G1 X90.316 Y127.061 E8.41045
G1 X89.702 Y126.529 E8.43179
G1 X89.127 Y125.964 E8.45294
G1 X88.436 Y125.180 E8.48040
G1 X87.945 Y124.536 E8.50165
G1 X87.492 Y123.858 E8.52307
G1 X87.183 Y123.335 E8.53902
G1 X86.815 Y122.628 E8.55994
G1 X86.403 Y121.676 E8.58720
G1 X86.199 Y121.109 E8.60300
G1 X85.966 Y120.334 E8.62427
G1 X85.784 Y119.550 E8.64540
G1 X85.649 Y118.752 E8.66664
G1 X85.550 Y117.706 E8.69424
G1 X85.531 Y117.049 E8.71149
G1 X85.531 Y92.945 E9.34441
G1 X85.550 Y92.287 E9.36170
G1 X85.647 Y91.266 E9.38864
G1 X85.739 Y90.681 E9.40418
G1 X85.888 Y89.983 E9.42292
G1 X86.131 Y89.099 E9.44698
G1 X86.481 Y88.126 E9.47414
G1 X86.812 Y87.380 E9.49558
G1 X87.092 Y86.831 E9.51176
G1 X87.609 Y85.958 E9.53841
G1 X87.951 Y85.455 E9.55436
G1 X88.433 Y84.823 E9.57523
G1 X89.082 Y84.084 E9.60106
G1 X89.425 Y84.334 F7800.000
G1 F1800
G1 X89.983 Y83.785 E9.62160
G1 X90.590 Y83.258 E9.64271
G1 X91.207 Y82.789 E9.66306
G1 X91.688 Y82.462 E9.67833
G1 X92.367 Y82.053 E9.69914
G1 X93.242 Y81.606 E9.72494
G1 X93.968 Y81.299 E9.74564
G1 X94.814 Y81.007 E9.76916
G1 X95.483 Y80.820 E9.78740
G1 X96.046 Y80.694 E9.80253
G1 X97.040 Y80.537 E9.82896
G1 X97.807 Y80.471 E9.84916
G1 X98.449 Y80.452 E9.86603
G1 X105.546 Y80.452 E10.05239
G1 X106.185 Y80.470 E10.06918
G1 X106.968 Y80.538 E10.08983
G1 X107.748 Y80.655 E10.11053
G1 X108.519 Y80.820 E10.13122
G1 X109.281 Y81.035 E10.15201
G1 X110.023 Y81.295 E10.17268
G1 X110.750 Y81.603 E10.19339
G1 X111.457 Y81.956 E10.21415
G1 X112.133 Y82.348 E10.23468
G1 X112.794 Y82.789 E10.25552
G1 X113.421 Y83.267 E10.27623
G1 X114.015 Y83.783 E10.29688
G1 X114.577 Y84.335 E10.31758
G1 X115.103 Y84.923 E10.33829
G1 X115.600 Y85.553 E10.35935
G1 X116.041 Y86.191 E10.37973
G1 X116.448 Y86.868 E10.40046
G1 X116.812 Y87.568 E10.42117
G1 X117.206 Y88.479 E10.44724
G1 X117.407 Y89.038 E10.46285
G1 X117.629 Y89.783 E10.48325
G1 X117.807 Y90.552 E10.50399
G1 X117.935 Y91.319 E10.52439
G1 X118.030 Y92.315 E10.55067
G1 X118.048 Y92.946 E10.56725
G1 X118.048 Y117.051 E11.20021
G1 X118.017 Y117.885 E11.22212
G1 X117.937 Y118.671 E11.24286
G1 X117.844 Y119.257 E11.25844
G1 X117.679 Y120.023 E11.27901
G1 X117.462 Y120.790 E11.29994
G1 X117.204 Y121.525 E11.32040
G1 X116.899 Y122.246 E11.34095
G1 X116.545 Y122.956 E11.36180
G1 X116.151 Y123.634 E11.38237
G1 X115.713 Y124.291 E11.40310
G1 X115.247 Y124.904 E11.42333
G1 X114.724 Y125.508 E11.44432
G1 X114.154 Y126.087 E11.46564
G1 X113.577 Y126.604 E11.48599
G1 X112.956 Y127.093 E11.50674
G1 X112.311 Y127.539 E11.52733
G1 X111.640 Y127.944 E11.54791
G1 X110.937 Y128.309 E11.56870
G1 X110.014 Y128.708 E11.59511
G1 X109.469 Y128.904 E11.61033
G1 X108.711 Y129.131 E11.63109
G1 X107.722 Y129.350 E11.65769
G1 X106.947 Y129.465 E11.67828
G1 X106.181 Y129.530 E11.69844
G1 X105.551 Y129.548 E11.71500
G1 X98.446 Y129.548 E11.90157
G1 X97.819 Y129.530 E11.91804
G1 X96.841 Y129.438 E11.94383
G1 X96.055 Y129.308 E11.96475
G1 X95.483 Y129.180 E11.98015
G1 X94.721 Y128.966 E12.00094
G1 X93.975 Y128.704 E12.02170
G1 X93.038 Y128.297 E12.04852
G1 X92.360 Y127.943 E12.06860
G1 X91.694 Y127.543 E12.08899
G1 X91.045 Y127.094 E12.10972
G1 X90.579 Y126.733 E12.12520
G1 X89.985 Y126.217 E12.14584
G1 X89.429 Y125.671 E12.16631
G1 X88.764 Y124.917 E12.19271
G1 X88.289 Y124.294 E12.21328
G1 X87.851 Y123.638 E12.23400
G1 X87.549 Y123.127 E12.24959
G1 X87.193 Y122.442 E12.26984
G1 X86.796 Y121.526 E12.29605
G1 X86.597 Y120.973 E12.31150
G1 X86.372 Y120.222 E12.33207
G1 X86.196 Y119.464 E12.35253
G1 X86.066 Y118.692 E12.37308
G1 X85.970 Y117.686 E12.39961
G1 X85.952 Y117.046 E12.41642
G1 X85.952 Y92.949 E13.04917
G1 X85.971 Y92.307 E13.06602
G1 X86.064 Y91.325 E13.09192
G1 X86.154 Y90.753 E13.10712
G1 X86.299 Y90.075 E13.12533
G1 X86.534 Y89.223 E13.14854
G1 X86.870 Y88.287 E13.17465
G1 X87.190 Y87.565 E13.19539
G1 X87.463 Y87.029 E13.21119
G1 X87.961 Y86.189 E13.23683
G1 X88.295 Y85.698 E13.25242
G1 X88.762 Y85.086 E13.27262
G1 X89.384 Y84.377 E13.29739
G1 X89.727 Y84.627 F7800.000
G1 F1800
G1 X90.266 Y84.096 E13.31725
G1 X90.853 Y83.588 E13.33764
G1 X91.449 Y83.133 E13.35732
G1 X91.919 Y82.814 E13.37225
G1 X92.575 Y82.419 E13.39236
G1 X93.416 Y81.990 E13.41713
G1 X94.117 Y81.692 E13.43714
G1 X94.932 Y81.411 E13.45978
G1 X95.582 Y81.229 E13.47748
G1 X96.131 Y81.106 E13.49228
G1 X97.085 Y80.955 E13.51764
G1 X97.827 Y80.891 E13.53718
G1 X98.452 Y80.873 E13.55360
G1 X105.543 Y80.873 E13.73980
G1 X106.165 Y80.891 E13.75614
G1 X106.922 Y80.956 E13.77610
G1 X107.676 Y81.070 E13.79611
G1 X108.420 Y81.230 E13.81610
G1 X109.157 Y81.437 E13.83620
G1 X109.875 Y81.689 E13.85617
G1 X110.577 Y81.986 E13.87619
G1 X111.260 Y82.328 E13.89625
G1 X111.914 Y82.707 E13.91609
G1 X112.551 Y83.133 E13.93623
G1 X113.157 Y83.596 E13.95624
G1 X113.731 Y84.094 E13.97621
G1 X114.274 Y84.628 E13.99621
G1 X114.783 Y85.196 E14.01623
G1 X115.262 Y85.805 E14.03657
G1 X115.689 Y86.422 E14.05627
G1 X116.082 Y87.076 E14.07630
G1 X116.433 Y87.753 E14.09632
G1 X116.812 Y88.628 E14.12136
G1 X117.008 Y89.174 E14.13659
G1 X117.223 Y89.894 E14.15631
G1 X117.395 Y90.637 E14.17636
G1 X117.518 Y91.378 E14.19609
G1 X117.609 Y92.335 E14.22132
G1 X117.627 Y92.949 E14.23746
G1 X117.627 Y117.048 E14.87024
G1 X117.597 Y117.852 E14.89138
G1 X117.520 Y118.612 E14.91143
G1 X117.429 Y119.184 E14.92664
G1 X117.269 Y119.924 E14.94652
G1 X117.060 Y120.665 E14.96674
G1 X116.810 Y121.376 E14.98652
G1 X116.515 Y122.073 E15.00639
G1 X116.173 Y122.759 E15.02653
G1 X115.792 Y123.414 E15.04642
G1 X115.368 Y124.049 E15.06646
G1 X114.917 Y124.641 E15.08602
G1 X114.412 Y125.225 E15.10629
G1 X113.862 Y125.784 E15.12688
G1 X113.303 Y126.283 E15.14655
G1 X112.703 Y126.756 E15.16661
G1 X112.080 Y127.187 E15.18651
G1 X111.431 Y127.578 E15.20641
G1 X110.752 Y127.931 E15.22650
G1 X109.866 Y128.314 E15.25184
G1 X109.333 Y128.506 E15.26672
G1 X108.601 Y128.724 E15.28678
G1 X107.652 Y128.935 E15.31231
G1 X106.902 Y129.046 E15.33221
G1 X106.162 Y129.109 E15.35171
G1 X105.548 Y129.127 E15.36784
G1 X98.449 Y129.127 E15.55423
G1 X97.838 Y129.109 E15.57028
G1 X96.899 Y129.021 E15.59505
G1 X96.140 Y128.895 E15.61526
G1 X95.581 Y128.771 E15.63031
G1 X94.844 Y128.563 E15.65039
G1 X94.123 Y128.310 E15.67046
G1 X93.225 Y127.920 E15.69619
G1 X92.569 Y127.578 E15.71561
G1 X91.925 Y127.190 E15.73533
G1 X91.297 Y126.757 E15.75537
G1 X90.842 Y126.404 E15.77048
G1 X90.269 Y125.906 E15.79044
G1 X89.731 Y125.377 E15.81022
G1 X89.093 Y124.654 E15.83556
G1 X88.634 Y124.052 E15.85544
G1 X88.210 Y123.418 E15.87547
G1 X87.915 Y122.919 E15.89069
G1 X87.571 Y122.257 E15.91028
G1 X87.190 Y121.377 E15.93544
G1 X86.996 Y120.837 E15.95053
G1 X86.779 Y120.111 E15.97042
G1 X86.608 Y119.377 E15.99020
G1 X86.483 Y118.631 E16.01006
G1 X86.391 Y117.666 E16.03553
G1 X86.373 Y117.043 E16.05189
G1 X86.373 Y92.952 E16.68447
G1 X86.391 Y92.327 E16.70088
G1 X86.481 Y91.384 E16.72575
G1 X86.569 Y90.826 E16.74061
G1 X86.710 Y90.167 E16.75828
G1 X86.936 Y89.347 E16.78064
G1 X87.259 Y88.448 E16.80571
G1 X87.568 Y87.750 E16.82575
G1 X87.835 Y87.227 E16.84117
G1 X88.313 Y86.420 E16.86579
G1 X88.639 Y85.941 E16.88101
G1 X89.091 Y85.349 E16.90056
G1 X89.686 Y84.670 E16.92427
G1 X90.030 Y84.920 F7800.000
G1 F1800
G1 X90.550 Y84.408 E16.94345
G1 X91.116 Y83.917 E16.96311
G1 X91.691 Y83.478 E16.98212
G1 X92.150 Y83.166 E16.99670
G1 X92.784 Y82.784 E17.01611
G1 X93.590 Y82.373 E17.03986
G1 X94.267 Y82.086 E17.05917
G1 X95.050 Y81.816 E17.08094
G1 X95.680 Y81.639 E17.09811
G1 X96.217 Y81.519 E17.11256
G1 X97.131 Y81.374 E17.13687
G1 X97.847 Y81.312 E17.15575
G1 X98.455 Y81.294 E17.17172
G1 X105.540 Y81.294 E17.35775
G1 X106.145 Y81.312 E17.37365
G1 X106.876 Y81.375 E17.39292
G1 X107.604 Y81.484 E17.41223
G1 X108.322 Y81.639 E17.43153
G1 X109.033 Y81.840 E17.45092
G1 X109.726 Y82.083 E17.47020
G1 X110.403 Y82.370 E17.48953
G1 X111.063 Y82.700 E17.50889
G1 X111.694 Y83.067 E17.52805
G1 X112.309 Y83.478 E17.54748
G1 X112.894 Y83.924 E17.56680
G1 X113.448 Y84.406 E17.58607
G1 X113.972 Y84.922 E17.60538
G1 X114.463 Y85.470 E17.62470
G1 X114.925 Y86.057 E17.64433
G1 X115.337 Y86.653 E17.66335
G1 X115.716 Y87.285 E17.68269
G1 X116.055 Y87.938 E17.70202
G1 X116.418 Y88.776 E17.72601
G1 X116.609 Y89.309 E17.74087
G1 X116.816 Y90.004 E17.75992
G1 X116.983 Y90.723 E17.77928
G1 X117.102 Y91.438 E17.79832
G1 X117.188 Y92.355 E17.82250
G1 X117.206 Y92.953 E17.83821
G1 X117.206 Y117.045 E18.47082
G1 X117.178 Y117.820 E18.49118
G1 X117.103 Y118.553 E18.51053
G1 X117.014 Y119.111 E18.52538
G1 X116.860 Y119.826 E18.54457
G1 X116.658 Y120.541 E18.56409
G1 X116.416 Y121.227 E18.58319
G1 X116.131 Y121.900 E18.60237
G1 X115.800 Y122.562 E18.62181
G1 X115.433 Y123.194 E18.64101
G1 X115.024 Y123.807 E18.66035
G1 X114.588 Y124.379 E18.67924
G1 X114.100 Y124.942 E18.69881
G1 X113.569 Y125.481 E18.71866
G1 X113.030 Y125.963 E18.73766
G1 X112.451 Y126.419 E18.75702
G1 X111.849 Y126.835 E18.77623
G1 X111.222 Y127.212 E18.79544
G1 X110.567 Y127.553 E18.81483
G1 X109.718 Y127.920 E18.83912
G1 X109.197 Y128.107 E18.85365
G1 X108.490 Y128.318 E18.87301
G1 X107.581 Y128.520 E18.89747
G1 X106.857 Y128.627 E18.91668
G1 X106.142 Y128.689 E18.93553
G1 X105.545 Y128.706 E18.95122
G1 X98.358 Y128.704 E19.13992
G1 X97.685 Y128.678 E19.15761
G1 X96.958 Y128.604 E19.17681
G1 X96.225 Y128.483 E19.19632
G1 X95.679 Y128.361 E19.21101
G1 X94.968 Y128.161 E19.23039
G1 X94.272 Y127.916 E19.24976
G1 X93.412 Y127.542 E19.27440
G1 X92.778 Y127.212 E19.29317
G1 X92.156 Y126.838 E19.31222
G1 X91.550 Y126.420 E19.33155
G1 X91.106 Y126.075 E19.34631
G1 X90.552 Y125.594 E19.36557
G1 X90.033 Y125.084 E19.38468
G1 X89.422 Y124.391 E19.40896
G1 X88.978 Y123.810 E19.42815
G1 X88.569 Y123.198 E19.44748
G1 X88.281 Y122.711 E19.46234
G1 X87.949 Y122.071 E19.48126
G1 X87.584 Y121.228 E19.50537
G1 X87.394 Y120.701 E19.52011
G1 X87.185 Y120.000 E19.53931
G1 X87.020 Y119.291 E19.55841
G1 X86.900 Y118.571 E19.57759
G1 X86.812 Y117.646 E19.60198
G1 X86.794 Y117.040 E19.61790
G1 X86.794 Y92.955 E20.25032
G1 X86.812 Y92.348 E20.26628
G1 X86.898 Y91.444 E20.29012
